sequoia/src/pages/Main/Utility/assets/land.svg

<svg width="112" height="120" viewBox="0 0 112 120" fill="none" xmlns="http://www.w3.org/2000/svg">
<g filter="url(#filter0_dii_370_25080)">
<path d="M52.6266 11.8554C54.7272 10.7001 57.2729 10.7001 59.3734 11.8554L92.3734 30.0054C94.6103 31.2356 96 33.5861 96 36.1389V71.8611C96 74.4139 94.6103 76.7644 92.3734 77.9946L59.3734 96.1446C57.2729 97.2999 54.7271 97.2999 52.6266 96.1446L19.6266 77.9946C17.3897 76.7644 16 74.4139 16 71.8611V36.1389C16 33.5861 17.3897 31.2356 19.6266 30.0054L52.6266 11.8554Z" fill="url(#paint0_radial_370_25080)" fill-opacity="0.179" shape-rendering="crispEdges"/>
</g>
<path d="M72.956 69.7057L69.1914 57.4706C69.1287 57.2663 69.0017 57.0872 68.8296 56.96C68.6575 56.833 68.4494 56.7644 68.2354 56.7647H61.6477C61.3817 56.7639 61.1267 56.8687 60.9383 57.0563C60.7502 57.2438 60.6443 57.4989 60.6443 57.7646C60.6443 58.0304 60.7502 58.2852 60.9383 58.4727C61.1266 58.6606 61.3817 58.7654 61.6477 58.7646H67.4972L70.6466 68.9997H41.3537L44.503 58.7646H50.3525C50.6185 58.7654 50.8736 58.6606 51.062 58.4727C51.2501 58.2852 51.356 58.0304 51.356 57.7646C51.356 57.4989 51.2501 57.2438 51.062 57.0563C50.8736 56.8687 50.6186 56.7639 50.3525 56.7647H43.7648C43.5509 56.7644 43.3427 56.833 43.1707 56.96C42.9986 57.0872 42.8716 57.2663 42.8089 57.4706L39.0442 69.7057C38.9509 70.009 39.0072 70.3385 39.1958 70.5939C39.3844 70.8492 39.683 70.9997 40.0005 70.9997H71.9995C72.317 70.9997 72.6156 70.8492 72.8042 70.5939C72.9928 70.3385 73.0491 70.009 72.9557 69.7057H72.956Z" fill="white"/>
<path fill-rule="evenodd" clip-rule="evenodd" d="M52.0446 31.018C51.4664 31.1496 51.0805 31.7183 50.758 32.9142C50.6478 33.323 50.5161 33.807 50.4656 33.9897C50.3249 34.4975 49.921 35.1732 49.7322 35.2165C49.6393 35.2379 49.4191 35.2002 49.2428 35.1329C49.0665 35.0654 48.6814 35.005 48.387 34.9983C47.9071 34.9876 47.8277 35.011 47.6193 35.2237C47.4916 35.3541 47.3377 35.6056 47.2774 35.7825C46.9416 36.7676 46.9156 38.8087 47.2281 39.6522C47.4159 40.1591 47.8121 40.608 48.3204 40.8901C48.5216 41.0017 48.6861 41.1281 48.6861 41.1711C48.6861 41.2141 48.5478 41.2839 48.379 41.3264C46.902 41.6974 45.4718 42.4428 45.1329 43.0178C44.9225 43.375 44.9665 43.9733 45.2326 44.3724C45.7271 45.114 47.1171 45.8805 48.6388 46.2507C49.6524 46.4973 51.4117 46.5158 52.1823 46.288C52.8517 46.09 53.5308 45.7905 53.6881 45.6239C53.7562 45.5518 53.8705 45.4928 53.942 45.4928C54.3293 45.4928 53.7857 54.0677 53.1834 57.4601C52.736 59.9798 52.1058 61.6559 51.3794 62.258C51.0107 62.5637 50.9753 62.692 51.2038 62.8928C51.3885 63.0552 51.7567 62.9998 52.0411 62.7667C52.4782 62.4084 53.0587 61.364 53.3329 60.4426C53.6267 59.4556 53.9241 58.1354 54.0625 57.2035C54.1201 56.8152 54.2067 56.2359 54.2548 55.9161C54.5119 54.2083 54.7917 50.4879 54.937 46.846C55.0565 43.8515 55.054 43.8315 54.5568 43.8319C54.3662 43.8319 54.2474 43.9169 54.0461 44.1971C53.241 45.3171 51.9454 45.8187 50.1306 45.7127C49.0426 45.6492 48.5814 45.5351 47.4576 45.0516C46.3104 44.558 45.6219 43.8672 45.8461 43.4349C46.1174 42.9112 47.1669 42.4375 49.4893 41.7905C50.5135 41.5052 50.8594 41.3178 50.8594 41.0485C50.8594 40.8142 50.5372 40.5926 50.1968 40.5926C49.7997 40.5926 48.8711 40.3522 48.5911 40.177C48.4477 40.0872 48.2297 39.8357 48.1065 39.618C47.8961 39.2456 47.8835 39.1388 47.8939 37.8102C47.9092 35.8448 48.0949 35.4624 48.864 35.8119C49.0209 35.8832 49.3712 35.9415 49.6425 35.9415C50.1041 35.9415 50.1622 35.9174 50.5449 35.5663C50.7699 35.36 50.9539 35.1245 50.9539 35.043C50.9539 34.9616 50.9916 34.8595 51.0377 34.8161C51.1153 34.7432 51.2838 34.1835 51.5366 33.1592C51.6985 32.503 52.0016 31.8738 52.2009 31.7801C52.3517 31.7091 52.4761 31.757 52.9099 32.0529C53.887 32.7193 54.1184 32.8535 54.4654 32.9551C55.0134 33.1154 55.1552 33.0604 56.3865 32.2112C56.9069 31.8522 56.9216 31.8479 57.0868 32.0036C57.1796 32.091 57.3277 32.4359 57.416 32.7701C57.8402 34.3769 58.5268 34.9401 60.0652 34.9436C60.7714 34.9452 62.0177 35.1432 63.0223 35.4134C65.6992 36.1334 66.2674 37.7524 64.4197 39.3939C63.846 39.9035 63.3595 40.1773 63.0275 40.1773C62.9277 40.1773 62.5488 40.0084 62.1857 39.8018C61.3226 39.311 60.8571 39.2007 60.2074 39.3325C59.6916 39.437 58.9104 39.8848 58.1355 40.5198C57.5685 40.9844 56.9924 41.2063 56.5431 41.1331C55.9241 41.0323 55.2045 40.4483 54.4913 39.4684C54.3128 39.2232 54.1667 38.9833 54.1667 38.9355C54.1667 38.8876 54.131 38.8484 54.0874 38.8484C54.0438 38.8484 53.9621 38.7595 53.9057 38.651C53.7586 38.3671 53.2242 37.8518 53.077 37.8518C52.8375 37.8518 52.6377 38.1126 52.7027 38.3405C52.7366 38.4591 52.7969 38.5751 52.8367 38.5984C52.8766 38.6217 53.2329 39.0893 53.6285 39.6374C54.4044 40.7126 55.1305 41.426 55.7163 41.6891C55.9709 41.8033 56.2783 41.8555 56.7104 41.8578C57.4741 41.8621 57.8702 41.7018 58.7728 41.0235C59.9707 40.1233 60.0951 40.0586 60.6286 40.0586C61.0281 40.0586 61.1968 40.1094 61.5853 40.3462C62.3153 40.7914 62.4642 40.8417 63.0511 40.8417C63.7654 40.8417 64.2378 40.624 65.0339 39.9281C65.9478 39.1293 66.441 38.1179 66.3275 37.2757C66.0944 35.5454 64.0789 34.533 60.2223 34.2089C58.8048 34.0898 58.607 33.9188 58.1797 32.4427C58.0617 32.0351 57.8949 31.6074 57.8091 31.4923C57.6076 31.222 57.2308 31.0993 56.8135 31.1679C56.4946 31.2205 55.4715 31.7984 55.2132 32.072C54.9513 32.3494 54.3254 32.172 53.7108 31.6462C53.1926 31.2028 52.4549 30.9247 52.0446 31.018ZM59.7891 41.5567C58.574 42.1031 58.2784 42.5331 58.3451 43.6576C58.4101 44.7546 58.9378 45.5399 59.8867 45.9516C60.5922 46.2577 62.6968 46.2131 64.2776 45.8586C65.9419 45.4854 67.2571 44.4248 66.9572 43.6975C66.7015 43.0773 66.0564 42.7621 64.6053 42.5482C63.1112 42.3279 62.6107 42.1698 61.5673 41.5881C60.9943 41.2687 60.4511 41.2592 59.7891 41.5567ZM61.4405 42.377C62.2548 42.8358 62.9703 43.0527 64.3214 43.2507C65.5289 43.4277 65.6677 43.4653 65.9549 43.6924C66.2371 43.9157 66.2237 44.0128 65.8685 44.3181C65.2774 44.826 64.0626 45.221 62.5294 45.4038C61.0879 45.5756 60.4491 45.4885 59.8855 45.043C59.3494 44.6192 59.1622 44.2271 59.1591 43.5216C59.1567 42.987 59.186 42.8767 59.3783 42.6955C59.5751 42.51 60.5266 42.0189 60.7095 42.0085C60.748 42.0063 61.0769 42.1721 61.4405 42.377ZM57.2524 44.8972C57.1135 45.0321 57.0959 45.3589 57.0955 47.8249C57.0944 53.1584 57.5002 58.5926 58.0439 60.5257C58.5536 62.3379 59.1511 63.1795 59.778 62.9681C60.0916 62.8623 60.0529 62.6054 59.6682 62.2385C59.1776 61.7707 58.9262 61.0514 58.6197 59.2383C58.2117 56.8248 57.9511 52.1669 57.9479 47.2328C57.9469 45.5653 57.9157 44.9176 57.8331 44.845C57.6693 44.701 57.4324 44.7224 57.2524 44.8972Z" fill="white" stroke="white"/>
<defs>
<filter id="filter0_dii_370_25080" x="0" y="0.98877" width="112" height="118.022" filterUnits="userSpaceOnUse" color-interpolation-filters="sRGB">
<feFlood flood-opacity="0" result="BackgroundImageFix"/>
<feColorMatrix in="SourceAlpha" type="matrix" values="0 0 0 0 0 0 0 0 0 0 0 0 0 0 0 0 0 0 127 0" result="hardAlpha"/>
<feOffset dy="6"/>
<feGaussianBlur stdDeviation="8"/>
<feComposite in2="hardAlpha" operator="out"/>
<feColorMatrix type="matrix" values="0 0 0 0 0 0 0 0 0 0 0 0 0 0 0 0 0 0 0.25 0"/>
<feBlend mode="normal" in2="BackgroundImageFix" result="effect1_dropShadow_370_25080"/>
<feBlend mode="normal" in="SourceGraphic" in2="effect1_dropShadow_370_25080" result="shape"/>
<feColorMatrix in="SourceAlpha" type="matrix" values="0 0 0 0 0 0 0 0 0 0 0 0 0 0 0 0 0 0 127 0" result="hardAlpha"/>
<feOffset dx="-1.12" dy="1.12"/>
<feGaussianBlur stdDeviation="0.56"/>
<feComposite in2="hardAlpha" operator="arithmetic" k2="-1" k3="1"/>
<feColorMatrix type="matrix" values="0 0 0 0 1 0 0 0 0 1 0 0 0 0 1 0 0 0 0.558 0"/>
<feBlend mode="normal" in2="shape" result="effect2_innerShadow_370_25080"/>
<feColorMatrix in="SourceAlpha" type="matrix" values="0 0 0 0 0 0 0 0 0 0 0 0 0 0 0 0 0 0 127 0" result="hardAlpha"/>
<feOffset dx="1.12" dy="-1.12"/>
<feGaussianBlur stdDeviation="0.56"/>
<feComposite in2="hardAlpha" operator="arithmetic" k2="-1" k3="1"/>
<feColorMatrix type="matrix" values="0 0 0 0 0.84 0 0 0 0 0.84 0 0 0 0 0.84 0 0 0 0.558 0"/>
<feBlend mode="normal" in2="effect2_innerShadow_370_25080" result="effect3_innerShadow_370_25080"/>
</filter>
<radialGradient id="paint0_radial_370_25080" cx="0" cy="0" r="1" gradientUnits="userSpaceOnUse" gradientTransform="translate(56 54) rotate(90) scale(44 40)">
<stop stop-color="white"/>
<stop offset="1" stop-color="white" stop-opacity="0.21"/>
</radialGradient>
</defs>
</svg>

<svg width="112" height="120" fill="none" xmlns="http://www.w3.org/2000/svg"><g filter="url(#a)"><path d="M52.63 11.86a7 7 0 0 1 6.74 0l33 18.15A7 7 0 0 1 96 36.14v35.72A7 7 0 0 1 92.37 78l-33 18.15a7 7 0 0 1-6.74 0L19.63 78A7 7 0 0 1 16 71.86V36.14A7 7 0 0 1 19.63 30l33-18.15Z" fill="url(#b)" fill-opacity=".18" shape-rendering="crispEdges"/></g><path d="m72.96 69.7-3.77-12.23a1 1 0 0 0-.95-.7h-6.6a1 1 0 1 0 0 2h5.86L70.65 69h-29.3l3.15-10.24h5.85a1 1 0 1 0 0-2h-6.59a1 1 0 0 0-.95.71l-3.77 12.24A1 1 0 0 0 40 71h32a1 1 0 0 0 .96-1.3Z" fill="#fff"/><path fill-rule="evenodd" clip-rule="evenodd" d="M52.04 31.02c-.57.13-.96.7-1.28 1.9l-.3 1.07c-.14.5-.54 1.18-.73 1.23-.1.02-.31-.02-.49-.09a3.18 3.18 0 0 0-.85-.13c-.48-.01-.56.01-.77.22-.13.13-.28.39-.34.56a7.84 7.84 0 0 0-.05 3.87c.19.5.58.96 1.09 1.24.2.11.37.24.37.28 0 .04-.14.11-.31.16-1.48.37-2.9 1.11-3.25 1.69-.2.35-.16.95.1 1.35.5.74 1.89 1.51 3.4 1.88 1.02.25 2.78.27 3.55.04.67-.2 1.35-.5 1.5-.67.08-.07.2-.13.26-.13.39 0-.15 8.58-.76 11.97-.44 2.52-1.07 4.2-1.8 4.8-.37.3-.4.43-.18.63.19.17.56.11.84-.12a5.67 5.67 0 0 0 1.3-2.33 26.36 26.36 0 0 0 .91-4.52c.26-1.71.54-5.43.69-9.07.12-3 .11-3.02-.38-3.02-.2 0-.31.09-.51.37-.8 1.12-2.1 1.62-3.92 1.51a6.4 6.4 0 0 1-2.67-.66c-1.15-.5-1.84-1.18-1.61-1.62.27-.52 1.32-1 3.64-1.64 1.02-.28 1.37-.47 1.37-.74 0-.24-.32-.46-.66-.46-.4 0-1.33-.24-1.6-.41a1.85 1.85 0 0 1-.5-.56c-.2-.37-.22-.48-.2-1.81 0-1.97.2-2.35.96-2 .16.07.51.13.78.13.46 0 .52-.02.9-.37.23-.21.41-.45.41-.53a7.77 7.77 0 0 0 .58-1.88c.17-.66.47-1.29.67-1.38.15-.07.28-.02.71.27.98.67 1.2.8 1.56.9.54.17.69.11 1.92-.74.52-.36.53-.36.7-.2.09.08.24.43.33.76.42 1.6 1.1 2.17 2.65 2.17.7 0 1.95.2 2.95.47 2.68.72 3.25 2.34 1.4 3.98-.57.51-1.06.79-1.4.79-.1 0-.47-.17-.83-.38-.87-.49-1.33-.6-1.98-.47-.52.1-1.3.55-2.07 1.19-.57.46-1.15.69-1.6.61-.62-.1-1.34-.68-2.05-1.66a2.36 2.36 0 0 1-.32-.53c0-.05-.04-.1-.08-.1-.05 0-.13-.08-.18-.19-.15-.28-.69-.8-.83-.8-.24 0-.44.26-.38.49.04.12.1.24.14.26.04.02.4.49.79 1.04a6.28 6.28 0 0 0 2.09 2.05c.25.11.56.17.99.17.76 0 1.16-.16 2.06-.84 1.2-.9 1.33-.96 1.86-.96.4 0 .57.05.96.29.73.44.87.5 1.46.5.72 0 1.19-.23 1.98-.92.92-.8 1.41-1.81 1.3-2.65-.24-1.73-2.25-2.75-6.1-3.07-1.43-.12-1.62-.3-2.05-1.77-.12-.4-.29-.83-.37-.95-.2-.27-.58-.4-1-.32a5.1 5.1 0 0 0-1.6.9c-.26.28-.88.1-1.5-.42-.52-.45-1.26-.73-1.67-.63Zm7.75 10.54c-1.22.54-1.51.97-1.44 2.1.06 1.1.59 1.88 1.54 2.3.7.3 2.8.25 4.39-.1 1.66-.37 2.98-1.44 2.68-2.16-.26-.62-.9-.94-2.35-1.15a7.1 7.1 0 0 1-3.04-.96c-.58-.32-1.12-.33-1.78-.03Zm1.65.82c.81.46 1.53.67 2.88.87 1.2.18 1.35.22 1.63.44.29.23.27.32-.08.63-.6.5-1.8.9-3.34 1.08-1.44.18-2.08.09-2.64-.36-.54-.42-.73-.81-.73-1.52 0-.53.03-.64.22-.82.2-.19 1.15-.68 1.33-.7.04 0 .37.17.73.38Zm-4.19 2.52c-.14.13-.15.46-.15 2.92 0 5.34.4 10.77.94 12.7.51 1.82 1.11 2.66 1.74 2.45.31-.1.27-.36-.11-.73-.5-.47-.74-1.19-1.05-3-.4-2.42-.67-7.07-.67-12 0-1.67-.03-2.32-.12-2.4-.16-.14-.4-.12-.58.06Z" fill="#fff" stroke="#fff"/><defs><radialGradient id="b" cx="0" cy="0" r="1" gradientUnits="userSpaceOnUse" gradientTransform="matrix(0 44 -40 0 56 54)"><stop stop-color="#fff"/><stop offset="1" stop-color="#fff" stop-opacity=".21"/></radialGradient><filter id="a" x="0" y=".99" width="112" height="118.02" filterUnits="userSpaceOnUse" color-interpolation-filters="sRGB"><feFlood flood-opacity="0" result="BackgroundImageFix"/><feColorMatrix in="SourceAlpha" values="0 0 0 0 0 0 0 0 0 0 0 0 0 0 0 0 0 0 127 0" result="hardAlpha"/><feOffset dy="6"/><feGaussianBlur stdDeviation="8"/><feComposite in2="hardAlpha" operator="out"/><feColorMatrix values="0 0 0 0 0 0 0 0 0 0 0 0 0 0 0 0 0 0 0.25 0"/><feBlend in2="BackgroundImageFix" result="effect1_dropShadow_370_25080"/><feBlend in="SourceGraphic" in2="effect1_dropShadow_370_25080" result="shape"/><feColorMatrix in="SourceAlpha" values="0 0 0 0 0 0 0 0 0 0 0 0 0 0 0 0 0 0 127 0" result="hardAlpha"/><feOffset dx="-1.12" dy="1.12"/><feGaussianBlur stdDeviation=".56"/><feComposite in2="hardAlpha" operator="arithmetic" k2="-1" k3="1"/><feColorMatrix values="0 0 0 0 1 0 0 0 0 1 0 0 0 0 1 0 0 0 0.558 0"/><feBlend in2="shape" result="effect2_innerShadow_370_25080"/><feColorMatrix in="SourceAlpha" values="0 0 0 0 0 0 0 0 0 0 0 0 0 0 0 0 0 0 127 0" result="hardAlpha"/><feOffset dx="1.12" dy="-1.12"/><feGaussianBlur stdDeviation=".56"/><feComposite in2="hardAlpha" operator="arithmetic" k2="-1" k3="1"/><feColorMatrix values="0 0 0 0 0.84 0 0 0 0 0.84 0 0 0 0 0.84 0 0 0 0.558 0"/><feBlend in2="effect2_innerShadow_370_25080" result="effect3_innerShadow_370_25080"/></filter></defs></svg>
